icon-themes/sifr_svg/cmd/sc_accepttrackedchanges.svg

<svg viewBox="0 0 16 16" xmlns="http://www.w3.org/2000/svg"><g fill="#555753"><path d="m13 0c-.30945 0-.55232.0903-.75.28125l-2.25 1.8828125v1.6152344c.725151.618354 1.233922 1.1698591 2.25 1.9394531.19768.19095.44055.28125.75.28125h.587891.412109v-1c0-.224022-.12983-.528449-.3125-.71875l-.371094-.28125h2.683594v-2h-2.683594l.371094-.28125c.18267-.190288.3125-.461858.3125-.71875v-1h-.412109zm-11 1v14h12v-7h-2v5h-8v-10h4v-2zm3 3v2h4v-2zm0 3v2h2v-2zm5 3v2h1v-2z"/><path d="m8 7v2h3v-2zm-3 3v2h4v-2z" opacity=".35"/></g></svg>

<svg xmlns="http://www.w3.org/2000/svg" viewBox="0 0 16 16">
  <path
     style="fill:#555753"
     d="M 13 0 C 12.69055 0 12.44768 0.0903 12.25 0.28125 L 10 2.1640625 L 10 3.7792969 C 10.725151 4.3976509 11.233922 4.949156 12.25 5.71875 C 12.44768 5.9097 12.69055 6 13 6 L 13.587891 6 L 14 6 L 14 5 C 14 4.775978 13.87017 4.471551 13.6875 4.28125 L 13.316406 4 L 16 4 L 16 2 L 13.316406 2 L 13.6875 1.71875 C 13.87017 1.528462 14 1.256892 14 1 L 14 0 L 13.587891 0 L 13 0 z M 2 1 L 2 15 L 14 15 L 14 8 L 12 8 L 12 13 L 4 13 L 4 3 L 8 3 L 8 1 L 2 1 z M 5 4 L 5 6 L 9 6 L 9 4 L 5 4 z M 5 7 L 5 9 L 7 9 L 7 7 L 5 7 z M 10 10 L 10 12 L 11 12 L 11 10 L 10 10 z "
     />
  <path
     style="opacity:0.35;fill:#555753"
     d="M 8 7 L 8 9 L 11 9 L 11 7 L 8 7 z M 5 10 L 5 12 L 9 12 L 9 10 L 5 10 z "
     />
</svg>
